cloud-alert-outline.svg

<svg fill="currentColor" viewBox="0 0 24 24"><path d="M21.86 12.5A4.31 4.31 0 0 0 19 11c0-1.95-.68-3.6-2.04-4.96S13.95 4 12 4c-1.58 0-3 .47-4.25 1.43s-2.08 2.19-2.5 3.72c-1.25.28-2.29.93-3.08 1.95S1 13.28 1 14.58c0 1.51.54 2.8 1.61 3.85C3.69 19.5 5 20 6.5 20h12c1.25 0 2.31-.44 3.19-1.31.87-.88 1.31-1.94 1.31-3.19q0-1.725-1.14-3m-1.59 4.77c-.48.49-1.07.73-1.77.73h-12c-.97 0-1.79-.34-2.47-1C3.34 16.29 3 15.47 3 14.5s.34-1.79 1.03-2.47C4.71 11.34 5.53 11 6.5 11H7c0-1.38.5-2.56 1.46-3.54C9.44 6.5 10.62 6 12 6s2.56.5 3.54 1.46C16.5 8.44 17 9.62 17 11v2h1.5c.7 0 1.29.24 1.77.73S21 14.8 21 15.5s-.24 1.29-.73 1.77M11 15h2v2h-2zm0-8h2v6h-2z"/></svg>

<svg  viewBox="0 0 24 24" fill="currentColor"><path  d="M21.86 12.5C21.1 11.63 20.15 11.13 19 11C19 9.05 18.32 7.4 16.96 6.04C15.6 4.68 13.95 4 12 4C10.42 4 9 4.47 7.75 5.43S5.67 7.62 5.25 9.15C4 9.43 2.96 10.08 2.17 11.1S1 13.28 1 14.58C1 16.09 1.54 17.38 2.61 18.43C3.69 19.5 5 20 6.5 20H18.5C19.75 20 20.81 19.56 21.69 18.69C22.56 17.81 23 16.75 23 15.5C23 14.35 22.62 13.35 21.86 12.5M20.27 17.27C19.79 17.76 19.2 18 18.5 18H6.5C5.53 18 4.71 17.66 4.03 17C3.34 16.29 3 15.47 3 14.5S3.34 12.71 4.03 12.03C4.71 11.34 5.53 11 6.5 11H7C7 9.62 7.5 8.44 8.46 7.46C9.44 6.5 10.62 6 12 6S14.56 6.5 15.54 7.46C16.5 8.44 17 9.62 17 11V13H18.5C19.2 13 19.79 13.24 20.27 13.73S21 14.8 21 15.5 20.76 16.79 20.27 17.27M11 15H13V17H11V15M11 7H13V13H11V7Z"/></svg>
